battery-alert.svg

<svg fill="currentColor" viewBox="0 0 24 24"><path d="M13 14h-2V8h2m0 10h-2v-2h2m3.7-12H15V2H9v2H7.3C6.6 4 6 4.6 6 5.3v15.3c0 .8.6 1.4 1.3 1.4h9.3c.7 0 1.3-.6 1.3-1.3V5.3c.1-.7-.5-1.3-1.2-1.3"/></svg>

<svg  viewBox="0 0 24 24" fill="currentColor"><path  d="M13 14H11V8H13M13 18H11V16H13M16.7 4H15V2H9V4H7.3C6.6 4 6 4.6 6 5.3V20.6C6 21.4 6.6 22 7.3 22H16.6C17.3 22 17.9 21.4 17.9 20.7V5.3C18 4.6 17.4 4 16.7 4Z"/></svg>
